X: 53
T: 53. Das neugeborne Kindelein
N: Derived from chor053.krn
C: Johann Sebastian Bach
%%abc-version 2.0
%%abcx-abcm2ps-target-version 5.9.1 (29 Sep 2008)
%%abc-creator hum2abc beta
%%abcx-conversion-date 2019/03/11 17:28:17
%%abc-edited-by Craig Stuart Sapp
%%humdrum-veritas 592470003
%%humdrum-veritas-data 1195758386
%%
%%barnumbers 0
L: 1/4
M: 3/4
%%staves [1 2 3 4]
V: 1 clef=treble
V: 2 clef=treble
V: 3 clef=treble-8
V: 4 clef=bass
K: Bb
[V:1] GGG | 
[V:2] DG/A/B | 
[V:3] Bdd | 
[V:4] G,/A,/B,A,/G,/ | 
[V:1] d3/c/B | 
[V:2] A2G | 
[V:3] d2d/c/ | 
[V:4] ^F,2G, | 
[V:1] dcB | 
[V:2] G^FG | 
[V:3] Bcd | 
[V:4] B,,A,,G,, | 
[V:1] !fermata!A3 | 
[V:2] !fermata!^F3 | 
[V:3] !fermata!d3 | 
[V:4] !fermata!D,3 | 
[V:1] dd=e | 
[V:2] G/A/BB | 
[V:3] dgg | 
[V:4] B,A,/G,/^C | 
[V:1] f2=e | 
[V:2] A2G | 
[V:3] f=B^c | 
[V:4] DD,=E, | 
[V:1] d^c2 | 
[V:2] F=E2 | 
[V:3] dA2 | 
[V:4] F,/G,/A,A,, | 
[V:1] !fermata!d3 | 
[V:2] !fermata!^F3 | 
[V:3] !fermata!A3 | 
[V:4] !fermata!D,3 | 
[V:1] dcA | 
[V:2] G_ED | 
[V:3] BAA | 
[V:4] G,,G,^F, | 
[V:1] B3/c/d | 
[V:2] DGF | 
[V:3] Ged | 
[V:4] G,3/A,/B, | 
[V:1] cBA | 
[V:2] GFF | 
[V:3] edc | 
[V:4] E,F,F,, | 
[V:1] !fermata!B3 | 
[V:2] !fermata!F3 | 
[V:3] !fermata!d3 | 
[V:4] !fermata!B,,3 | 
[V:1] fgf | 
[V:2] BBA | 
[V:3] dcc | 
[V:4] B,E,F, | 
[V:1] d3/c/B | 
[V:2] A2G | 
[V:3] Add | 
[V:4] ^F,2G, | 
[V:1] AG^F | 
[V:2] EDD | 
[V:3] cBA | 
[V:4] C,D,D, | 
[V:1] !fermata!G3 |]  
[V:2] !fermata!D3 |]  
[V:3] !fermata!=B3 |]  
[V:4] !fermata!G,,3 |]  



